Sources/FrostedUI/Resources/Icons.xcassets/paperAirplaneFilled32.imageset/paper-airplane-filled-32.svg

<svg width="32" height="32" viewBox="0 0 32 32" fill="none" xmlns="http://www.w3.org/2000/svg" data-fui-icon="true">
  <path
    d="M31.2368 14.7493L1.9504 0.142925C0.887605 -0.385472 -0.285983 0.637773 0.062811 1.79521L4.0924 13.3864C4.25654 13.9274 4.72434 14.3132 5.2783 14.3593L19.0495 16.0032L5.2783 17.6471C4.72434 17.6933 4.25654 18.0791 4.0924 18.62L0.062811 30.207C-0.285983 31.3645 0.883502 32.3877 1.9504 31.8551L31.2409 17.2487C31.7784 16.9803 32 16.5987 32 15.999C32 15.3993 31.7825 15.0177 31.2409 14.7493H31.2368Z"
    fill="currentColor"
  />
</svg>

<svg xmlns="http://www.w3.org/2000/svg" width="32" height="32" fill="none" data-fui-icon="true" viewBox="0 0 32 32"><path fill="currentColor" d="M31.237 14.75 1.95.142C.888-.385-.286.638.063 1.795l4.03 11.591c.164.541.631.927 1.185.973l13.772 1.644-13.772 1.644a1.36 1.36 0 0 0-1.186.973L.062 30.207c-.348 1.157.822 2.18 1.888 1.648L31.24 17.25c.538-.269.76-.65.76-1.25s-.218-.981-.76-1.25z"/></svg>
